svgs/VisualStudioTeamServicesBitbucketCodeSource.svg

<?xml version="1.0" encoding="UTF-8" standalone="no"?>
<!-- Generator: Adobe Illustrator 18.1.0, SVG Export Plug-In . SVG Version: 6.00 Build 0)  -->

<svg
   xmlns:dc="http://purl.org/dc/elements/1.1/"
   xmlns:cc="http://creativecommons.org/ns#"
   xmlns:rdf="http://www.w3.org/1999/02/22-rdf-syntax-ns#"
   xmlns:svg="http://www.w3.org/2000/svg"
   xmlns="http://www.w3.org/2000/svg"
   xmlns:sodipodi="http://sodipodi.sourceforge.net/DTD/sodipodi-0.dtd"
   xmlns:inkscape="http://www.inkscape.org/namespaces/inkscape"
   version="1.0"
   x="0px"
   y="0px"
   viewBox="0 0 31.4 35.885502"
   enable-background="new 0 0 152 117.5"
   xml:space="preserve"
   id="svg35"
   sodipodi:docname="VisualStudioTeamServicesBitbucketCodeSource.svg"
   width="31.4"
   height="35.885502"
   inkscape:version="0.92.4 (5da689c313, 2019-01-14)"><metadata
   id="metadata41"><rdf:RDF><cc:Work
       rdf:about=""><dc:format>image/svg+xml</dc:format><dc:type
         rdf:resource="http://purl.org/dc/dcmitype/StillImage" /></cc:Work></rdf:RDF></metadata><defs
   id="defs39" /><sodipodi:namedview
   pagecolor="#ffffff"
   bordercolor="#666666"
   borderopacity="1"
   objecttolerance="10"
   gridtolerance="10"
   guidetolerance="10"
   inkscape:pageopacity="0"
   inkscape:pageshadow="2"
   inkscape:window-width="713"
   inkscape:window-height="543"
   id="namedview37"
   showgrid="false"
   inkscape:zoom="2.0085106"
   inkscape:cx="15.6"
   inkscape:cy="17.85"
   inkscape:window-x="0"
   inkscape:window-y="0"
   inkscape:window-maximized="0"
   inkscape:current-layer="svg35" />
<g
   id="Layer_1"
   transform="translate(-60.4,-40.7145)">
	<g
   id="Azure">
	</g>
</g>
<g
   id="paths"
   transform="translate(-60.4,-40.7145)">
	<g
   id="Access_control">
	</g>
	<g
   id="Azure_active_directory">
	</g>
	<g
   id="API_Management">
	</g>
	<g
   id="Azure_automation">
	</g>
	<g
   id="Azure_SQL_database">
	</g>
	<g
   id="Azure_subscription">
	</g>
	<g
   id="Backup_service">
	</g>
	<g
   id="Bitbucket_code_source">
		<g
   id="g31">
			<title
   id="title11">Sheet.964</title>
			<g
   id="group965-1966_1_"
   transform="translate(0,-7.2855)">
				<title
   id="title13">Sheet.965</title>
				<g
   id="shape966-1967_1_"
   transform="translate(9.4425,-4.27425)">
					<title
   id="title15">Sheet.966</title>
					<circle
   cx="66.599998"
   cy="69.699997"
   id="ellipse17"
   r="2.5"
   style="fill:#0078d7" />
				</g>
				<g
   id="shape967-1969_1_">
					<title
   id="title20">Sheet.967</title>
					<path
   d="m 76,48 c -8.6,0 -15.6,2.3 -15.6,5.1 L 63,68.4 c 0,3 5.8,5.5 13.1,5.5 7.2,0 13.1,-2.4 13.1,-5.5 L 91.8,53.1 C 91.6,50.3 84.6,48 76,48 Z m 0,22.4 c -2.8,0 -5,-2.2 -5,-5 0,-2.8 2.2,-5 5,-5 2.8,0 5,2.2 5,5 0,2.8 -2.2,5 -5,5 z m 0,-15.6 c -5.5,0 -10,-1 -10,-2.1 0,-1.2 4.5,-2.2 10,-2.2 5.5,0 10,1 10,2.2 0,1.2 -4.5,2.1 -10,2.1 z"
   id="path22"
   inkscape:connector-curvature="0"
   style="fill:#0078d7" />
				</g>
			</g>
			<g
   id="shape968-1971_1_"
   transform="translate(2.694)">
				<title
   id="title26">Sheet.968</title>
				<path
   d="m 62.8,66.5 c -0.2,-0.2 -0.4,-0.3 -0.5,-0.5 0,0 -0.1,0 -0.2,0 -0.3,0 -0.6,0.2 -0.7,0.5 l 0.1,0.6 1.1,5.2 c 0,2.1 4.8,4.3 10.7,4.3 5.9,0 10.7,-2.1 10.7,-4.3 l 1.1,-5.2 0.1,-0.6 C 85.1,66.2 84.8,66 84.5,66 c 0,0 -0.1,0 -0.2,0 -0.2,0.2 -0.3,0.3 -0.5,0.5 -2,1.5 -5.9,2.6 -10.5,2.6 -4.6,0 -8.5,-1 -10.5,-2.6 z"
   id="path28"
   inkscape:connector-curvature="0"
   style="fill:#0078d7" />
			</g>
		</g>
	</g>
</g>
</svg>

<?xml version="1.0" encoding="utf-8"?>
<!-- Generator: Adobe Illustrator 18.1.0, SVG Export Plug-In . SVG Version: 6.00 Build 0)  -->
<!DOCTYPE svg PUBLIC "-//W3C//DTD SVG 1.0//EN" "http://www.w3.org/TR/2001/REC-SVG-20010904/DTD/svg10.dtd">
<svg version="1.0" xmlns="http://www.w3.org/2000/svg" xmlns:xlink="http://www.w3.org/1999/xlink" x="0px" y="0px"
	 viewBox="0 0 152 117.5" enable-background="new 0 0 152 117.5" xml:space="preserve">
<g id="Layer_1">
	<g id="Azure">
	</g>
</g>
<g id="paths">
	<g id="Access_control">
	</g>
	<g id="Azure_active_directory">
	</g>
	<g id="API_Management">
	</g>
	<g id="Azure_automation">
	</g>
	<g id="Azure_SQL_database">
	</g>
	<g id="Azure_subscription">
	</g>
	<g id="Backup_service">
	</g>
	<g id="Bitbucket_code_source">
		<g>
			<title>Sheet.964</title>
			<g id="group965-1966_1_" transform="translate(-2.3781E-013,-7.2855)">
				<title>Sheet.965</title>
				<g id="shape966-1967_1_" transform="translate(9.4425,-4.27425)">
					<title>Sheet.966</title>
					<ellipse fill="#0078D7" cx="66.6" cy="69.7" rx="2.5" ry="2.5"/>
				</g>
				<g id="shape967-1969_1_">
					<title>Sheet.967</title>
					<path fill="#0078D7" d="M76,48c-8.6,0-15.6,2.3-15.6,5.1l2.6,15.3c0,3,5.8,5.5,13.1,5.5c7.2,0,13.1-2.4,13.1-5.5l2.6-15.3
						C91.6,50.3,84.6,48,76,48z M76,70.4c-2.8,0-5-2.2-5-5c0-2.8,2.2-5,5-5c2.8,0,5,2.2,5,5C81,68.2,78.8,70.4,76,70.4z M76,54.8
						c-5.5,0-10-1-10-2.1c0-1.2,4.5-2.2,10-2.2c5.5,0,10,1,10,2.2C86,53.9,81.5,54.8,76,54.8z"/>
				</g>
			</g>
			<g id="shape968-1971_1_" transform="translate(2.694,-4.54747E-013)">
				<title>Sheet.968</title>
				<path fill="#0078D7" d="M62.8,66.5c-0.2-0.2-0.4-0.3-0.5-0.5c0,0-0.1,0-0.2,0c-0.3,0-0.6,0.2-0.7,0.5l0.1,0.6l1.1,5.2
					c0,2.1,4.8,4.3,10.7,4.3c5.9,0,10.7-2.1,10.7-4.3l1.1-5.2l0.1-0.6c-0.1-0.3-0.4-0.5-0.7-0.5c0,0-0.1,0-0.2,0
					c-0.2,0.2-0.3,0.3-0.5,0.5c-2,1.5-5.9,2.6-10.5,2.6C68.7,69.1,64.8,68.1,62.8,66.5z"/>
			</g>
		</g>
	</g>
</g>
</svg>
